icons/svg/settings.svg

<svg width="24" height="24" viewBox="0 0 24 24" fill="none" xmlns="http://www.w3.org/2000/svg">
<path fill-rule="evenodd" clip-rule="evenodd" d="M7.04913 6.46185C8.206 6.86921 9.45363 6.14889 9.67927 4.94333L10.0013 3.22272C10.6441 3.07696 11.3131 3 12 3C12.6869 3 13.3559 3.07696 13.9987 3.22272L14.3207 4.94338C14.5464 6.14893 15.794 6.86926 16.9509 6.46189L18.6 5.88117C19.5062 6.85814 20.1981 8.03664 20.601 9.34196L19.2716 10.4815C18.3404 11.2797 18.3404 12.7203 19.2716 13.5185L20.601 14.658C20.1981 15.9634 19.5062 17.1419 18.6 18.1188L16.9509 17.5381C15.794 17.1307 14.5464 17.8511 14.3207 19.0566L13.9987 20.7773C13.3559 20.923 12.6869 21 12 21C11.3131 21 10.6441 20.923 10.0013 20.7773L9.67927 19.0567C9.45363 17.8511 8.206 17.1308 7.04913 17.5382L5.39999 18.1189C4.49381 17.1419 3.80189 15.9634 3.39896 14.658L4.7284 13.5185C5.65962 12.7203 5.65962 11.2797 4.7284 10.4815L3.39896 9.34196C3.80189 8.03663 4.49381 6.85811 5.39999 5.88113L7.04913 6.46185ZM12 9C13.6569 9 15 10.3431 15 12C15 13.6569 13.6569 15 12 15C10.3431 15 9 13.6569 9 12C9 10.3431 10.3431 9 12 9Z" stroke="currentColor" stroke-width="1.5" stroke-linecap="round" stroke-linejoin="round"/>
</svg>

<svg xmlns="http://www.w3.org/2000/svg" width="24" height="24" fill="none" viewBox="0 0 24 24"><path stroke="currentColor" stroke-linecap="round" stroke-linejoin="round" stroke-width="1.5" d="M7.05 6.462a2 2 0 0 0 2.63-1.519l.32-1.72a9 9 0 0 1 3.998 0l.322 1.72a2 2 0 0 0 2.63 1.519l1.649-.58a9 9 0 0 1 2.001 3.46l-1.33 1.14a2 2 0 0 0 0 3.037l1.33 1.139a9 9 0 0 1-2.001 3.46l-1.65-.58a2 2 0 0 0-2.63 1.519L14 20.777a9 9 0 0 1-3.998 0l-.322-1.72a2 2 0 0 0-2.63-1.519l-1.649.58a9 9 0 0 1-2.001-3.46l1.33-1.14a2 2 0 0 0 0-3.036L3.4 9.342a9 9 0 0 1 2-3.46zM12 9a3 3 0 1 1 0 6 3 3 0 0 1 0-6" clip-rule="evenodd"/></svg>
